static/assets/images/networks/avalanche-mono.svg

<svg width="289" height="256" viewBox="0 0 289 256" fill="none" xmlns="http://www.w3.org/2000/svg">
<path d="M72.531 256H23.9373C13.7263 256 8.68244 256 5.60707 254.037C2.28531 251.887 0.255516 248.327 0.00946006 244.397C-0.175249 240.776 2.347 236.355 7.39082 227.514L127.375 16.4375C132.48 7.4743 135.064 2.99268 138.324 1.3352C141.83 -0.445067 146.013 -0.445067 149.519 1.3352C152.779 2.99268 155.363 7.4743 160.468 16.4375L185.26 59.6308C190.774 69.2466 193.57 74.1229 194.791 79.2407C196.144 84.8274 196.144 90.721 194.791 96.3077C193.561 101.464 190.793 106.376 185.195 116.137L122.171 227.33L122.008 227.615L122.004 227.621C116.456 237.312 113.643 242.224 109.746 245.931C105.501 249.984 100.396 252.929 94.7981 254.589C89.6926 256 83.9723 256 72.531 256Z" fill="black"/>
<path d="M195.246 256H264.876C275.148 256 280.316 256 283.393 253.977C286.714 251.827 288.804 248.203 288.991 244.277C289.168 240.773 286.701 236.524 281.867 228.198L281.866 228.197C281.722 227.951 281.577 227.702 281.43 227.448L281.363 227.331L246.485 167.782L246.088 167.111L246.081 167.099C241.184 158.836 238.711 154.662 235.536 153.048C232.031 151.267 227.907 151.267 224.403 153.048C221.204 154.705 218.621 159.064 213.515 167.843L178.761 227.393L178.642 227.598L178.641 227.6C173.554 236.364 171.012 240.743 171.196 244.337C171.442 248.267 173.471 251.887 176.793 254.037C179.807 256 184.974 256 195.246 256Z" fill="black"/>
</svg>

<svg xmlns="http://www.w3.org/2000/svg" fill="none" viewBox="0 0 289 256"><path fill="#000" d="M72.531 256H23.937c-10.21 0-15.255 0-18.33-1.963-3.322-2.15-5.351-5.71-5.598-9.64-.184-3.621 2.338-8.042 7.382-16.883L127.375 16.438c5.105-8.964 7.689-13.445 10.949-15.103a12.4 12.4 0 0 1 11.195 0c3.26 1.658 5.844 6.14 10.949 15.103L185.26 59.63c5.514 9.616 8.31 14.492 9.531 19.61a36.4 36.4 0 0 1 0 17.067c-1.23 5.156-3.998 10.068-9.596 19.829L122.171 227.33l-.163.285-.004.006c-5.548 9.691-8.361 14.603-12.258 18.31a36.7 36.7 0 0 1-14.948 8.658C89.693 256 83.972 256 72.531 256m122.715 0h69.63c10.272 0 15.44 0 18.517-2.023a12.28 12.28 0 0 0 5.598-9.7c.177-3.504-2.29-7.753-7.124-16.079l-.001-.001-.436-.749-.067-.117-34.878-59.549-.397-.671-.007-.012c-4.897-8.263-7.37-12.437-10.545-14.051a12.27 12.27 0 0 0-11.133 0c-3.199 1.657-5.782 6.016-10.888 14.795l-34.754 59.55-.119.205-.001.002c-5.087 8.764-7.629 13.143-7.445 16.737.246 3.93 2.275 7.55 5.597 9.7C179.807 256 184.974 256 195.246 256"/></svg>
